Papirus-nordic/24x24/places/folder-red-github.svg

<svg xmlns="http://www.w3.org/2000/svg" width="24" height="24" version="1">
 <rect style="opacity:0.2" width="20" height="12" x="2" y="9.5" rx="1" ry="1"/>
 <path style="fill:#ae4f58" d="M 2,17 C 2,17.554 2.446,18 3,18 H 21 C 21.554,18 22,17.554 22,17 V 6 C 22,5.446 21.554,5 21,5 H 11 V 4 C 11,3.446 10.554,3 10,3 H 3 C 2.446,3 2,3.446 2,4"/>
 <rect style="opacity:0.2" width="20" height="12" x="2" y="8.5" rx="1" ry="1"/>
 <rect style="fill:#e4e4e4" width="16" height="8" x="4" y="7" rx="1" ry="1"/>
 <rect style="fill:#bf616a" width="20" height="12" x="2" y="9" rx="1" ry="1"/>
 <path style="opacity:0.1;fill:#ffffff" d="M 3,3 C 2.446,3 2,3.446 2,4 V 4.5 C 2,3.946 2.446,3.5 3,3.5 H 10 C 10.554,3.5 11,3.946 11,4.5 V 4 C 11,3.446 10.554,3 10,3 Z M 11,5 V 5.5 H 21 C 21.554,5.5 22,5.946 22,6.5 V 6 C 22,5.446 21.554,5 21,5 Z"/>
 <path style="fill:#974a4d" d="m 12,11.129883 c -2.216,0 -4,1.784 -4,4 0,1.786484 1.159976,3.290064 2.770508,3.80664 V 18.005957 C 9.757983,18.229397 9.544922,17.560644 9.544922,17.560644 9.379327,17.133335 9.140625,17.019629 9.140625,17.019629 c -0.330515,-0.229285 0.02442,-0.225586 0.02442,-0.225586 0.36536,0.02609 0.557617,0.381836 0.557617,0.381836 0.3247,0.56516 0.852195,0.402297 1.05957,0.307617 0.03308,-0.238865 0.127536,-0.30319 0.231446,-0.395605 -0.80825,-0.09335 -1.4731884,-0.801869 -1.508789,-1.528006 -0.02175,-0.443633 0.362266,-0.933869 0.595116,-1.192219 -0.03755,-0.09355 -0.163044,-0.869725 0.03515,-1.378775 0,0 0.0191,-0.006 0.05859,-0.0078 0.11845,-0.0055 0.3849,0.318844 0.90625,0.677794 0.314772,-0.09043 0.648517,-0.132716 0.900001,-0.134766 0.283566,-0.0023 0.569923,0.04644 0.865811,0.134766 0.5215,-0.35895 0.854656,-0.68427 0.972656,-0.678771 h 10e-4 c 0.03945,0.0018 0.05859,0.0078 0.05859,0.0078 0.19866,0.50903 0.07345,1.286202 0.03614,1.379751 0.23326,0.258401 0.570033,0.752351 0.565804,1.19222 -0.0089,0.93044 -0.850433,1.433571 -1.661133,1.525076 0.130503,0.1142 0.163086,0.340642 0.163086,0.685547 0,0.41656 -0.001,0.68732 -0.002,0.859375 V 19 C 14.728287,18.557659 16,16.999841 16,15.129883 c 0,-2.216 -1.784,-4 -4,-4 z"/>
</svg>

<svg xmlns="http://www.w3.org/2000/svg" width="24" height="24" version="1"><rect width="20" height="12" x="2" y="9.5" rx="1" ry="1" opacity=".2"/><path d="M2 17c0 .554.446 1 1 1h18c.554 0 1-.446 1-1V6c0-.554-.446-1-1-1H11V4c0-.554-.446-1-1-1H3c-.554 0-1 .446-1 1" fill="#ae4f58"/><rect width="20" height="12" x="2" y="8.5" rx="1" ry="1" opacity=".2"/><rect width="16" height="8" x="4" y="7" rx="1" ry="1" fill="#e4e4e4"/><rect width="20" height="12" x="2" y="9" rx="1" ry="1" fill="#bf616a"/><path d="M3 3c-.554 0-1 .446-1 1v.5c0-.554.446-1 1-1h7c.554 0 1 .446 1 1V4c0-.554-.446-1-1-1zm8 2v.5h10c.554 0 1 .446 1 1V6c0-.554-.446-1-1-1z" opacity=".1" fill="#fff"/><path d="M12 11.13c-2.216 0-4 1.784-4 4 0 1.786 1.16 3.29 2.77 3.807v-.931c-1.012.223-1.225-.445-1.225-.445-.166-.428-.404-.541-.404-.541-.33-.23.024-.226.024-.226.365.026.558.382.558.382.324.565.852.402 1.06.307.032-.238.127-.303.23-.395-.808-.093-1.473-.802-1.508-1.528-.022-.444.362-.934.595-1.192-.038-.094-.163-.87.035-1.38 0 0 .02-.005.059-.007.118-.005.385.319.906.678.315-.09.649-.133.9-.135.284-.002.57.047.866.135.521-.36.854-.684.972-.679h.001c.04.002.06.008.06.008.198.509.073 1.286.035 1.38.233.258.57.752.566 1.192-.009.93-.85 1.433-1.661 1.525.13.114.163.34.163.686L13 18.63V19c1.728-.442 3-2 3-3.87 0-2.216-1.784-4-4-4z" fill="#974a4d"/></svg>
